X: 54
T:Robinsons Reel. BF13.053
M:2/2
L:1/8
Q:200
S:J.Lishman()MS,c1825,Lakes,Browne Coll.
R:Reel
O:England
A:Lakes
Z:vmp.Cherri Graebe.
K:A major
Aaae cAAc|Bbba geeg|(ag)ae (fe)(dc)|dfed cA A2|!
|cAGA FAEA|(GABc) dfed|cAGA FAEA|(df)ed  cA A2:|]
